X:46
T:GB/7a/46 You Seamen Bold Who Plough the Ocean-0
%%VWML:GB-7a-46-0
F:http://www.vwml.org/record/GB/7a/46
T:Version 4 of 4
C:Transcribed by Simon Furey and Lewis Jones
L:1/4
M:5/4
I:linebreak $
K:G
D | G F G2 G/A/ |"^? " B c/B/ A B c | d g d2 c/B/ | A B G2 :| c |$ d e =f e d | [M:6/4] g g !breath!f (d3/2 e/) =f |[M:5/4] g g =f e d | c/d/ e d2 D |$ G F G2 G/A/ | B c/B/ A B c | d g d2 c/B/ | A B G2 |]

